X:47
T:Church Street 2
M:2/4
L:1/8
K:G 
dc|:B2G2 |D2>D2|E2c2 |c2AB|c2E2 |F2>E2|D2d2 |de dc|
|B2G2 |D2>D2|E2c2| c2AB|cB AG |FD EF| G2B2 |1 G2dc:|2 G2Bd||
|:g4 |f4|c4- |c2d2|e4| d4 |B4-|B2 c2|
|d2>e2 |d2B2|A4-|A2 G2|1A3A |B2c2| d4|e2f2:|2 A2g2|fga2|g4 |g2 dc|
